!! 00010] TT[TB
!! Eigene Aufnahme
!!!OTL: Bai hao qiu The sand dunes of Agt
!!!ARE: Neimeng
!! Ethnic Group: Menggu
!! MM, S. 576/7
!!!SCT: C0548
!!!YEM: Copyright 1995, estate of Helmut Schaffrath.
**kern
*ICvox
*Ivox
*M2/4
*k[]
*C:
{8g
4a
8cc
=1
8a
8g
4A
=2
8d
4e
8g
=3
8e
8c
4A}
=4
{8g
4a
8cc
=5
8.g
16e
4a
=6
8g
[4.e
=7
2e]}
=8
{8g
4a
8cc
=9
4a
4aa
=10
8d
4e
8g
=11
8e
8c
4aa}
=12
{8c
4d
8e
=13
8c
8A
4e
=14
8c
[4.A
=15
2A]}
==
!!!AGN: NN
!! Saenger: Chao Lun Batou, der das Buch nur zum Nachschlagen
!!    benutzte und ansonsten auswendig sang. Da er aus dem Osten der
!!    Neimeng kommt, kennt er nicht so viele Lieder des Westens.
!!    Alle Lieder wurden mit erkaelteter, halber Stimme in meinem
!!    Zimmer gesungen. FOTO VORHANDEN (DIAS)  31.3.87
!!    Variante.
!!!ONB: ESAC (Essen Associative Code) Database: CHINA
!!!AMT: simple duple
!!!AIN: vox
!!!EED: Helmut Schaffrath
!!!EEV: 1.0
*-
!!!ONB: Tied note syntax fixed by Craig Sapp, 2004/05/03/
